source/img/icons/cat-pro.svg

<svg width="67" height="28" viewBox="0 0 67 28" fill="none" xmlns="http://www.w3.org/2000/svg">
<g clip-path="url(#clip0_135_3258)">
<path d="M61.55 2.89997C62.1272 1.98151 62.8944 1.19727 63.8 0.599973C64.3 0.249973 64.6 0.249973 64.9 0.899973C65.3 1.84997 65.65 2.84997 65.35 3.89997C65.2954 4.07806 65.2851 4.26677 65.3199 4.44974C65.3548 4.63272 65.4338 4.80442 65.55 4.94997C65.85 5.34997 66.1 5.74997 66.35 6.09997C66.6902 6.53186 66.9109 7.04563 66.9899 7.58974C67.0689 8.13385 67.0034 8.68917 66.8 9.19997C66.6164 9.69588 66.5817 10.2346 66.7 10.75C66.7999 11.245 66.7999 11.755 66.7 12.25C66.6596 12.6207 66.5095 12.9709 66.2691 13.2559C66.0286 13.5409 65.7086 13.7478 65.35 13.85C64.7104 13.9717 64.1396 14.3284 63.75 14.85C63.7028 14.9268 63.6365 14.9901 63.5577 15.0339C63.4789 15.0777 63.3901 15.1005 63.3 15.1C62.7 15.2 61.2 13.85 61.2 13.25V12.95C61.25 11.15 61.15 11 59.5 10.25C59.1546 10.1282 58.8452 9.92192 58.6 9.64997C58.3 9.24997 57.9 9.29997 57.45 9.44997C57 9.59997 56.75 9.89997 56.8 10.4C56.9508 11.6104 57.0009 12.8313 56.95 14.05C56.9533 14.1891 56.9875 14.3257 57.05 14.45C58.6 16.7 59.2 19.35 59.95 21.9C60.55 23.85 61.65 24.9 63.65 25.05C63.97 25.0755 64.2876 25.1257 64.6 25.2C65.0109 25.266 65.3926 25.4538 65.6956 25.739C65.9987 26.0242 66.2092 26.3938 66.3 26.8C66.65 27.85 66.45 28.1 65.4 28.1H62.15C61.7292 28.1213 61.3167 27.9778 61 27.7C60.4939 27.2729 59.9191 26.9348 59.3 26.7C58.6155 26.4473 58.0231 25.9943 57.6 25.4C57.0143 24.5817 56.3439 23.8275 55.6 23.15C54.2 21.7 52.7 20.3 51.4 18.8C50.4103 17.7779 49.8395 16.4221 49.8 15C49.8 14.55 49.7 14.35 49.2 14.55C49.0503 14.645 48.8773 14.6969 48.7 14.7C47.3 14.7 46.6 15.55 46.1 16.8C45.65 17.85 45.05 18.85 44.5 19.9C44.1881 20.5572 44.0178 21.2727 44 22C44 23.2 44.3 23.6 45.4 24C46.1 24.25 46.75 24.5 47.1 25.2C47.5 26 47.4 26.2 46.55 26.25H43.15C42.954 26.2694 42.7568 26.2267 42.5864 26.1281C42.4159 26.0294 42.2807 25.8796 42.2 25.7L41.3 24.2C41.0347 23.8086 40.8648 23.3605 40.8041 22.8916C40.7433 22.4227 40.7932 21.9461 40.95 21.5C41.1664 20.6317 41.1835 19.7258 41 18.85C40.8739 18.24 40.8848 17.6097 41.0318 17.0045C41.1788 16.3993 41.4582 15.8342 41.85 15.35C42.15 15 42.15 14.85 41.65 14.75C39.6054 14.3157 37.6233 13.627 35.75 12.7C35.7367 12.7 35.724 12.6947 35.7146 12.6853C35.7052 12.676 35.7 12.6632 35.7 12.65C34.1 12.05 33.8 12.15 33.35 13.8C32.95 15.2 32.55 16.6 32.25 18.05C31.9 19.65 32.3 21.15 32.8 22.65C33 23.25 33.6 23.2 34.05 23.35C35.05 23.65 35.9 24.05 36.3 25.1C36.65 25.9 36.6 26 35.75 26C34.9 26 34.05 25.95 33.15 26C32.3905 26.0137 31.6493 25.7667 31.05 25.3C28.65 23.7 27.95 21.25 27.75 18.6C27.65 16.95 26.75 15.65 25.7 14.4C25.5 14.15 25.3 14.05 25 14.25C23.9267 14.8418 22.8062 15.3435 21.65 15.75C19.2371 16.602 17.1198 18.1292 15.55 20.15C14.9638 20.8875 14.5842 21.7675 14.45 22.7C14.3 23.6 14.55 24 15.45 24.25C16.35 24.5 16.8 25 16.9 25.95C16.95 26.35 16.8 26.55 16.4 26.55H12.35C12.2174 26.5406 12.0891 26.4993 11.9759 26.4297C11.8628 26.36 11.7681 26.2641 11.7 26.15C11.0719 25.3724 10.7358 24.3995 10.75 23.4C10.7237 21.6724 10.8745 19.9468 11.2 18.25C11.2667 17.7418 11.4564 17.2576 11.7527 16.8394C12.0489 16.4212 12.4428 16.0815 12.9 15.85C15.85 14.45 17.4 11.8 18.8 9.04997C19.1 8.49997 18.85 8.39997 18.35 8.44997C16.9506 8.64424 15.6248 9.19523 14.5 10.05C13.0271 11.1244 11.6396 12.3113 10.35 13.6C8.9748 14.9968 7.15133 15.8643 5.19998 16.05C1.54998 16.25 -0.150021 14.2 -2.12286e-05 10.9C0.03351 9.77477 0.457802 8.69636 1.19998 7.84997C1.45799 7.51547 1.80985 7.26546 2.21061 7.13188C2.61138 6.99829 3.04287 6.98718 3.44998 7.09997C4.19998 7.29997 4.39998 7.69997 4.09998 8.44997C3.94998 8.74997 3.74998 8.99997 3.59998 9.29997C3.38428 9.60645 3.21574 9.94353 3.09998 10.3C2.54998 11.8 3.29998 12.85 4.84998 13C6.49998 13.15 7.84998 12.45 9.09998 11.45C10.6059 10.2441 11.9503 8.84929 13.1 7.29997C13.9596 6.16868 15.042 5.22562 16.2804 4.52904C17.5188 3.83245 18.8868 3.39714 20.3 3.24997C21.45 3.09997 22.45 2.59997 23.55 2.29997C25.6072 1.67278 27.7495 1.36915 29.9 1.39997C30.896 1.44145 31.8883 1.25327 32.8 0.849973C35.25 -0.150027 37.8 -0.150028 40.35 0.349973C42.35 0.749973 44.35 1.24997 46.3 1.74997C47.4605 1.96621 48.6537 1.93212 49.8 1.64997C51.9943 1.09374 54.2389 0.758734 56.5 0.649973C57.9812 0.577906 59.4576 0.869742 60.8 1.49997C61.8 1.94997 61.8 1.94997 61.55 2.89997Z" fill="black"/>
</g>
<defs>
<clipPath id="clip0_135_3258">
<rect width="67" height="28" fill="white"/>
</clipPath>
</defs>
</svg>

<svg xmlns="http://www.w3.org/2000/svg" width="67" height="28" fill="none"><g clip-path="url(#a)"><path fill="#000" d="M61.55 2.9A7.6 7.6 0 0 1 63.8.6c.5-.35.8-.35 1.1.3.4.95.75 1.95.45 3a1.15 1.15 0 0 0 .2 1.05c.3.4.55.8.8 1.15a3.14 3.14 0 0 1 .45 3.1c-.18.5-.22 1.03-.1 1.55.1.5.1 1 0 1.5a1.88 1.88 0 0 1-1.35 1.6 2.6 2.6 0 0 0-1.6 1 .53.53 0 0 1-.45.25c-.6.1-2.1-1.25-2.1-1.85v-.3c.05-1.8-.05-1.95-1.7-2.7a2.2 2.2 0 0 1-.9-.6c-.3-.4-.7-.35-1.15-.2-.45.15-.7.45-.65.95.15 1.21.2 2.43.15 3.65 0 .14.04.28.1.4 1.55 2.25 2.15 4.9 2.9 7.45.6 1.95 1.7 3 3.7 3.15.32.03.64.08.95.15a2.08 2.08 0 0 1 1.7 1.6c.35 1.05.15 1.3-.9 1.3h-3.25c-.42.02-.83-.12-1.15-.4a5.86 5.86 0 0 0-1.7-1 3.63 3.63 0 0 1-1.7-1.3 14.3 14.3 0 0 0-2-2.25c-1.4-1.45-2.9-2.85-4.2-4.35a5.69 5.69 0 0 1-1.6-3.8c0-.45-.1-.65-.6-.45a.96.96 0 0 1-.5.15c-1.4 0-2.1.85-2.6 2.1-.45 1.05-1.05 2.05-1.6 3.1A5.2 5.2 0 0 0 44 22c0 1.2.3 1.6 1.4 2 .7.25 1.35.5 1.7 1.2.4.8.3 1-.55 1.05h-3.4a.94.94 0 0 1-.95-.55l-.9-1.5a3.02 3.02 0 0 1-.35-2.7c.22-.87.23-1.77.05-2.65a4.2 4.2 0 0 1 .85-3.5c.3-.35.3-.5-.2-.6a25.03 25.03 0 0 1-5.95-2.1c-1.6-.6-1.9-.5-2.35 1.15-.4 1.4-.8 2.8-1.1 4.25-.35 1.6.05 3.1.55 4.6.2.6.8.55 1.25.7 1 .3 1.85.7 2.25 1.75.35.8.3.9-.55.9-.85 0-1.7-.05-2.6 0-.76.01-1.5-.23-2.1-.7-2.4-1.6-3.1-4.05-3.3-6.7-.1-1.65-1-2.95-2.05-4.2-.2-.25-.4-.35-.7-.15-1.07.6-2.2 1.1-3.35 1.5a13.35 13.35 0 0 0-6.1 4.4 5.31 5.31 0 0 0-1.1 2.55c-.15.9.1 1.3 1 1.55s1.35.75 1.45 1.7c.05.4-.1.6-.5.6h-4.05a.83.83 0 0 1-.65-.4 4.28 4.28 0 0 1-.95-2.75 25.3 25.3 0 0 1 .45-5.15 3.15 3.15 0 0 1 1.7-2.4c2.95-1.4 4.5-4.05 5.9-6.8.3-.55.05-.65-.45-.6-1.4.2-2.73.75-3.85 1.6a35.3 35.3 0 0 0-4.15 3.55 8.34 8.34 0 0 1-5.15 2.45c-3.65.2-5.35-1.85-5.2-5.15.03-1.13.46-2.2 1.2-3.05a2.12 2.12 0 0 1 2.25-.75c.75.2.95.6.65 1.35-.15.3-.35.55-.5.85-.22.3-.38.64-.5 1-.55 1.5.2 2.55 1.75 2.7 1.65.15 3-.55 4.25-1.55 1.5-1.2 2.85-2.6 4-4.15a10.4 10.4 0 0 1 7.2-4.05c1.15-.15 2.15-.65 3.25-.95 2.06-.63 4.2-.93 6.35-.9a6.5 6.5 0 0 0 2.9-.55c2.45-1 5-1 7.55-.5 2 .4 4 .9 5.95 1.4 1.16.22 2.35.18 3.5-.1 2.2-.56 4.44-.9 6.7-1a9.08 9.08 0 0 1 4.3.85c1 .45 1 .45.75 1.4Z"/></g><defs><clipPath id="a"><path fill="#fff" d="M0 0h67v28H0z"/></clipPath></defs></svg>
